X:125
T: Peter Feeney's Dream
C: Joe Derrane
Z: B.Black
R: reel
M: 4/4
L: 1/8
K: D
A|dedc BAFA|DEFD EDB,C|DCDE FABc|dfed cege|
dedc BAFA | (3DED DF EDB,C | DCDE FAdB | AFEF D3 :|
A | dcde faaf | dedc BAFA | A2 (3cBA eA (3cBA |\
ABce agec |
dcde faaf | dcBA BAFA | ABcd cefg | faef d3 :|
